src/img/landings/express-smm/banner-decor.svg

<svg xmlns="http://www.w3.org/2000/svg" width="1106" height="991" fill="none"><g clip-path="url(#clip0)"><path d="M716.083 388.952v385.166l-.431.996-47.374-105.04-78.875 83.954-10.667-114.703-101.94 53.82 27.155-111.985-113.843 17.802 62.068-97.101-113.477-20.153 90.22-71.678-38.006-21.078h325.17z" stroke="#000" stroke-width="7" stroke-linecap="round" stroke-linejoin="round"/><path d="M1092.61 481.708l-113.417 20.154 62.007 97.1-113.846-17.802 27.156 111.985-101.876-53.82-10.732 114.703-78.875-83.954-46.943 104.044V388.952h-325.17L328.16 354.17l108.573-38.506-77.2-85.564 115.215-1.18-45.206-105.966 109.387 36.273-8.308-114.894 91.583 69.82L651.664 2.79l63.989 95.793 63.99-95.793 29.459 111.363 91.647-69.82-8.371 114.894 109.382-36.273-45.201 105.966 115.211 1.18-77.141 85.564 108.581 38.506-100.77 55.861 90.17 71.677z" fill="#FFD400" stroke="#000" stroke-width="7" stroke-linecap="round" stroke-linejoin="round"/><path d="M899.322 410.812c0 101.421-82.231 183.646-183.661 183.646s-183.653-82.225-183.653-183.646" stroke="#817878" stroke-width="7" stroke-linecap="round" stroke-linejoin="round"/><mask id="a" maskUnits="userSpaceOnUse" x="498" y="390" width="218" height="247"><path fill="#C4C4C4" d="M498.297 390.635h217.657v245.542H498.297z"/></mask><g mask="url(#a)"><path d="M899.318 410.812c0 101.422-82.231 183.647-183.661 183.647s-183.653-82.225-183.653-183.647" stroke="#fff" stroke-width="7" stroke-linecap="round" stroke-linejoin="round"/></g><path d="M643.867 353.843c10.093 0 18.274-40.532 18.274-90.531 0-49.999-8.181-90.532-18.274-90.532-10.092 0-18.273 40.533-18.273 90.532 0 49.999 8.181 90.531 18.273 90.531zM787.449 353.843c10.093 0 18.274-40.532 18.274-90.531 0-49.999-8.181-90.532-18.274-90.532-10.092 0-18.273 40.533-18.273 90.532 0 49.999 8.181 90.531 18.273 90.531z" fill="#000"/><path d="M716.083 774.095v131.077H199.734V388.921h191.172l38.014 21.086-90.228 71.678 113.477 20.145-62.069 97.101 113.852-17.794-27.164 111.977 101.94-53.82 10.668 114.711 78.875-83.955 47.374 105.033.438-.988z" stroke="#fff" stroke-width="7" stroke-linecap="round" stroke-linejoin="round"/><path d="M157.35 431.341h84.814v-84.808H157.35v84.808zM673.685 431.341H758.5v-84.808h-84.815v84.808zM673.685 947.632H758.5v-84.808h-84.815v84.808zM157.35 947.632h84.814v-84.808H157.35v84.808z" fill="#FF5050" stroke="#000" stroke-width="7" stroke-linecap="round" stroke-linejoin="round"/><path d="M199.733 524.151v216.954l-31.628 80.168-32.059-79.985-75.71 41.113 26.845-81.906-84.392-17.18 73.174-45.449-53.64-67.46 85.324 12.221 2.296-86.131 57.42 64.176 32.37-36.521z" fill="#3092F7" stroke="#000" stroke-width="7" stroke-linecap="round" stroke-linejoin="round"/><path d="M248.408 700.057l27.283 81.722-75.957-40.674V524.152l24.804-27.959 2.726 86.123 85.261-12.715-53.266 67.707 73.485 45.083-84.336 17.666z" stroke="#fff" stroke-width="7" stroke-linecap="round" stroke-linejoin="round"/><path d="M986.633 846.545l33.307-53.565 4.16 62.94 62.66-7.358-46.62 42.492 44.81 44.389-62.29-9.942-6.77 62.709-31.059-54.896-53.25 33.81 23.559-58.516-59.636-20.552 60.434-18.057-21.112-59.44 51.807 35.986z" fill="#FFB3B3" stroke="#000" stroke-width="7" stroke-linecap="round" stroke-linejoin="round"/></g><defs><clipPath id="clip0"><path fill="#fff" d="M0 0h1106v991H0z"/></clipPath></defs></svg>

<svg width="1019" height="991" viewBox="0 0 1019 991" fill="none" xmlns="http://www.w3.org/2000/svg">
<g clip-path="url(#clip0)">
<path d="M716.083 388.952V774.118L715.652 775.114L668.278 670.074L589.403 754.028L578.736 639.325L476.796 693.145L503.951 581.16L390.108 598.962L452.176 501.861L338.699 481.708L428.919 410.03L390.913 388.952H716.083Z" stroke="black" stroke-width="7" stroke-linecap="round" stroke-linejoin="round"/>
<path d="M1092.61 481.708L979.193 501.862L1041.2 598.962L927.354 581.16L954.51 693.145L852.634 639.325L841.902 754.028L763.027 670.074L716.084 774.118V388.952H390.914L328.16 354.17L436.733 315.664L359.533 230.1L474.748 228.92L429.542 122.954L538.929 159.227L530.621 44.3328L622.204 114.153L651.664 2.79004L715.653 98.5832L779.643 2.79004L809.102 114.153L900.749 44.3328L892.378 159.227L1001.76 122.954L956.559 228.92L1071.77 230.1L994.629 315.664L1103.21 354.17L1002.44 410.031L1092.61 481.708Z" fill="#FFD400" stroke="black" stroke-width="7" stroke-linecap="round" stroke-linejoin="round"/>
<path d="M899.322 410.812C899.322 512.233 817.091 594.458 715.661 594.458C614.231 594.458 532.008 512.233 532.008 410.812" stroke="#817878" stroke-width="7" stroke-linecap="round" stroke-linejoin="round"/>
<mask id="mask0" mask-type="alpha" maskUnits="userSpaceOnUse" x="498" y="390" width="218" height="247">
<rect x="498.297" y="390.635" width="217.657" height="245.542" fill="#C4C4C4"/>
</mask>
<g mask="url(#mask0)">
<path d="M899.318 410.812C899.318 512.234 817.087 594.459 715.657 594.459C614.227 594.459 532.004 512.234 532.004 410.812" stroke="white" stroke-width="7" stroke-linecap="round" stroke-linejoin="round"/>
</g>
<path d="M643.867 353.843C653.96 353.843 662.141 313.311 662.141 263.312C662.141 213.313 653.96 172.78 643.867 172.78C633.775 172.78 625.594 213.313 625.594 263.312C625.594 313.311 633.775 353.843 643.867 353.843Z" fill="black"/>
<path d="M787.449 353.843C797.542 353.843 805.723 313.311 805.723 263.312C805.723 213.313 797.542 172.78 787.449 172.78C777.357 172.78 769.176 213.313 769.176 263.312C769.176 313.311 777.357 353.843 787.449 353.843Z" fill="black"/>
<path d="M716.083 774.095V905.172H199.734V388.921H390.906L428.92 410.007L338.692 481.685L452.169 501.83L390.1 598.931L503.952 581.137L476.788 693.114L578.728 639.294L589.396 754.005L668.271 670.05L715.645 775.083L716.083 774.095Z" stroke="white" stroke-width="7" stroke-linecap="round" stroke-linejoin="round"/>
<path d="M157.35 431.341H242.164V346.533H157.35V431.341Z" fill="#FF5050" stroke="black" stroke-width="7" stroke-linecap="round" stroke-linejoin="round"/>
<path d="M673.685 431.341H758.5V346.533H673.685V431.341Z" fill="#FF5050" stroke="black" stroke-width="7" stroke-linecap="round" stroke-linejoin="round"/>
<path d="M673.685 947.632H758.5V862.824H673.685V947.632Z" fill="#FF5050" stroke="black" stroke-width="7" stroke-linecap="round" stroke-linejoin="round"/>
<path d="M157.35 947.632H242.164V862.824H157.35V947.632Z" fill="#FF5050" stroke="black" stroke-width="7" stroke-linecap="round" stroke-linejoin="round"/>
<path d="M199.733 524.151V741.105L168.105 821.273L136.046 741.288L60.3366 782.401L87.1809 700.495L2.78906 683.315L75.9632 637.866L22.3224 570.406L107.647 582.627L109.943 496.496L167.363 560.672L199.733 524.151Z" fill="#3092F7" stroke="black" stroke-width="7" stroke-linecap="round" stroke-linejoin="round"/>
<path d="M248.408 700.057L275.691 781.779L199.734 741.105V524.152L224.538 496.193L227.264 582.316L312.525 569.601L259.259 637.308L332.744 682.391L248.408 700.057Z" stroke="white" stroke-width="7" stroke-linecap="round" stroke-linejoin="round"/>
<path d="M986.633 846.545L1019.94 792.98L1024.1 855.92L1086.76 848.562L1040.14 891.054L1084.95 935.443L1022.66 925.501L1015.89 988.21L984.831 933.314L931.581 967.124L955.14 908.608L895.504 888.056L955.938 869.999L934.826 810.559L986.633 846.545Z" fill="#FFB3B3" stroke="black" stroke-width="7" stroke-linecap="round" stroke-linejoin="round"/>
</g>
<defs>
<clipPath id="clip0">
<rect width="1106" height="991" fill="white"/>
</clipPath>
</defs>
</svg>
